public/avatar/body/70.svg

<svg xmlns:xlink="http://www.w3.org/1999/xlink" height="82" width="84.85" xmlns="http://www.w3.org/2000/svg"><g transform="translate(37.4 42.25)"><use height="38" transform="translate(-11.95 -17.45)" width="32.05" xlink:href="#a"/><use height="21.6" transform="translate(-12.25 -17.95)" width="32.65" xlink:href="#b"/><use height="36.5" transform="translate(3.45 -13.45)" width="26.35" xlink:href="#c"/><use height="36.5" transform="matrix(-1 0 0 1 5.35 -13.45)" width="26.35" xlink:href="#c"/></g><defs><use height="38" width="32.05" xlink:href="#d" id="a"/><use height="21.6" width="32.65" xlink:href="#e" id="b"/><use height="36.5" width="26.35" xlink:href="#f" id="c"/><path d="M27.35 7.4q2.15 4.15 3.55 8.75 1.45 4.7 1.15 9.5-.35 4.95-4.2 8.1-3.8 3.2-8.75 4.05l-2.6.2q-3.6 0-7.05-1.15-4.65-1.6-7.1-5.5Q-.2 27.4.05 23q.2-4.4 2-9.3Q3.85 8.75 7 5.05 10.1 1.3 14.7.1l1.8-.1q1.9.05 3.7.8 4.75 2.05 7.15 6.6" fill="#fff" fill-rule="evenodd" transform="translate(-.05)" id="d"/><path d="M31.9 20.6q-.3-2.25-1-4.45-1.4-4.6-3.55-8.75-2.4-4.55-7.15-6.6-2.65-1.1-5.5-.7Q10.1 1.3 7 5.05q-3.15 3.7-4.95 8.65Q.7 17.3.25 20.6" fill="none" stroke="#000" stroke-linecap="round" stroke-linejoin="round" transform="translate(.25 .5)" id="e"/><g id="f"><path d="M44.25 33.35q-1.1-.05-4.55 1.2-1.35.55-2.9-.5-1.75-1.25-2.95-1.15-1.05.05-3.15 1.7-1.95 1.5-3.2 1.4l-3.35-1.05-.65-.2V31.1l8.2.45 4.5-5 4.3-12.3 1.5 10q.7 2.15 2.4 4.6.25.55 4.1 3.7l-4.25.8" fill="red" fill-rule="evenodd" transform="translate(-22.65)"/><path d="m25.35 31.2 6.35.35 4.5-5 4.3-12.3 1.5 10q.7 2.15 2.4 4.6.25.55 4.1 3.7l-4.25.8q-1.1-.05-4.55 1.2-1.35.55-2.9-.5-1.75-1.25-2.95-1.15-1.05.05-3.15 1.7-1.95 1.5-3.2 1.4l-3.35-1.05-.25-.1" fill="none" stroke="#000" stroke-linecap="round" stroke-linejoin="round" transform="translate(-22.65)"/><path d="m36.9 17.75-2.8 12.4-7.75 2.25H24.2v-5.85q3.3-1.15 6.65-3.5 3.35-2.3 6.05-5.3" fill="#ff9696" fill-rule="evenodd" transform="translate(-22.65)"/><path d="m32.65 22.25 4.25-4-.5 10.35-11.5 3.75-1.25-.05q-.3-2.55-.1-5.8l5.6 2.75 3.5-7" fill="red" fill-rule="evenodd" transform="translate(-22.65)"/><path d="M40 18.35 37.75 10q6.4.55 6.25 1.3-.1.75-4 7.05" fill-rule="evenodd" transform="translate(-22.65)"/><path d="m39.75 10.75-.1 6.85-.4 1.4H37.9l-3.25-2.25q2.75-1.25 3.5-2.4.75-1.1 1.6-3.6" fill-rule="evenodd" transform="translate(-22.65)"/><path d="m36.9 17.75 3.1.6-2 8.7-1.15 1.35q-2.65 3-7 4.5l.35-2.5q2.25-1.75 3.95-5.4 1.65-3.7 2.75-7.25" fill-rule="evenodd" transform="translate(-22.65)"/><path d="M36.4 28.6q-.4 5.15-1.9 6.15-1.05.7-4.9 1.2l-4.6.3q-.7-.15-.95-1.1l-.15-.9L30.15 33q2.6-.9 6.25-4.4" fill-rule="evenodd" transform="translate(-22.65)"/><path d="m35 32.5 2.2-6.7q3.25 5.35 2.3 6.45-.9 1.05-4.5.25m-10.7 1.3v-2.55q4.45-.1 8.35-1.9l.25 3.5-8.6.95" fill-rule="evenodd" transform="translate(-22.65)"/><path d="m34.1 30.85-2 1.35q-2.15 1.3-3.15 1.3l-5.5 1.3v-3.1l10.65-.85" fill-rule="evenodd" transform="translate(-22.65)"/><path d="M37.2 17.5q-1.9 2.6-5.25 4.85-3.4 2.25-8.3 4.2" fill="none" stroke="#ba2727" stroke-linecap="round" stroke-linejoin="round" transform="translate(-22.65)"/><path d="m29.1 30.25-5.95-3 .45-.85.15.15 5.2 2.7 3.4-6.75 1.1-.6-4.35 8.35" fill="#9e0000" fill-rule="evenodd" transform="translate(-22.65)"/><path d="M22.85 4.35Q24.6 0 27.6 0q2.05 0 3.85 1.7 1.8 1.65 2.25 4.05.55 2.55-1.45 4.55-2.2 2.15-6.25 2.15-1.6 0-2.7-3.45-1-3.2-.45-4.65" fill="#6395c0" fill-rule="evenodd" transform="translate(-22.65)"/></g></defs></svg>

<?xml version="1.0" encoding="UTF-8" standalone="no"?>
<svg xmlns:xlink="http://www.w3.org/1999/xlink" height="82.0px" width="84.85px" xmlns="http://www.w3.org/2000/svg">
  <g transform="matrix(1.0, 0.0, 0.0, 1.0, 37.4, 42.25)">
    <use height="38.0" transform="matrix(1.0, 0.0, 0.0, 1.0, -11.95, -17.45)" width="32.05" xlink:href="#sprite0"/>
    <use height="21.6" transform="matrix(1.0, 0.0, 0.0, 1.0, -12.25, -17.95)" width="32.65" xlink:href="#sprite1"/>
    <use height="36.5" transform="matrix(1.0, 0.0, 0.0, 1.0, 3.45, -13.45)" width="26.35" xlink:href="#sprite2"/>
    <use height="36.5" transform="matrix(-1.0, 0.0, 0.0, 1.0, 5.35, -13.45)" width="26.35" xlink:href="#sprite2"/>
  </g>
  <defs>
    <g id="sprite0" transform="matrix(1.0, 0.0, 0.0, 1.0, -0.05, 0.0)">
      <use height="38.0" transform="matrix(1.0, 0.0, 0.0, 1.0, 0.05, 0.0)" width="32.05" xlink:href="#shape0"/>
    </g>
    <g id="shape0" transform="matrix(1.0, 0.0, 0.0, 1.0, -0.05, 0.0)">
      <path d="M27.35 7.4 Q29.5 11.55 30.9 16.15 32.35 20.85 32.05 25.65 31.7 30.6 27.85 33.75 24.05 36.95 19.1 37.8 L16.5 38.0 Q12.9 38.0 9.45 36.85 4.8 35.25 2.35 31.35 -0.2 27.4 0.05 23.0 0.25 18.6 2.05 13.7 3.85 8.75 7.0 5.05 10.1 1.3 14.7 0.1 L16.5 0.0 Q18.4 0.05 20.2 0.8 24.95 2.85 27.35 7.4" fill="#ffffff" fill-rule="evenodd" stroke="none"/>
    </g>
    <g id="sprite1" transform="matrix(1.0, 0.0, 0.0, 1.0, 0.25, 0.5)">
      <use height="21.6" transform="matrix(1.0, 0.0, 0.0, 1.0, -0.25, -0.5)" width="32.65" xlink:href="#shape1"/>
    </g>
    <g id="shape1" transform="matrix(1.0, 0.0, 0.0, 1.0, 0.25, 0.5)">
      <path d="M31.9 20.6 Q31.6 18.35 30.9 16.15 29.5 11.55 27.35 7.4 24.95 2.85 20.2 0.8 17.55 -0.3 14.7 0.1 10.1 1.3 7.0 5.05 3.85 8.75 2.05 13.7 0.7 17.3 0.25 20.6" fill="none" stroke="#000000" stroke-linecap="round" stroke-linejoin="round" stroke-width="1.0"/>
    </g>
    <g id="sprite2" transform="matrix(1.0, 0.0, 0.0, 1.0, -22.65, 0.0)">
      <use height="36.5" transform="matrix(1.0, 0.0, 0.0, 1.0, 22.65, 0.0)" width="26.35" xlink:href="#shape2"/>
    </g>
    <g id="shape2" transform="matrix(1.0, 0.0, 0.0, 1.0, -22.65, 0.0)">
      <path d="M44.25 33.35 Q43.15 33.3 39.7 34.55 38.35 35.1 36.8 34.05 35.05 32.8 33.85 32.9 32.8 32.95 30.7 34.6 28.75 36.1 27.5 36.0 L24.15 34.95 23.5 34.75 23.5 31.1 31.7 31.55 36.2 26.55 40.5 14.25 42.0 24.25 Q42.7 26.4 44.4 28.85 44.65 29.4 48.5 32.55 L44.25 33.35" fill="#ff0000" fill-rule="evenodd" stroke="none"/>
      <path d="M25.35 31.2 L31.7 31.55 36.2 26.55 40.5 14.25 42.0 24.25 Q42.7 26.4 44.4 28.85 44.65 29.4 48.5 32.55 L44.25 33.35 Q43.15 33.3 39.7 34.55 38.35 35.1 36.8 34.05 35.05 32.8 33.85 32.9 32.8 32.95 30.7 34.6 28.75 36.1 27.5 36.0 L24.15 34.95 23.9 34.85" fill="none" stroke="#000000" stroke-linecap="round" stroke-linejoin="round" stroke-width="1.0"/>
      <path d="M36.9 17.75 L34.1 30.15 26.35 32.4 24.2 32.4 24.2 26.55 Q27.5 25.4 30.85 23.05 34.2 20.75 36.9 17.75" fill="#ff9696" fill-rule="evenodd" stroke="none"/>
      <path d="M32.65 22.25 L36.9 18.25 36.4 28.6 24.9 32.35 23.65 32.3 Q23.35 29.75 23.55 26.5 L29.15 29.25 32.65 22.25" fill="#ff0000" fill-rule="evenodd" stroke="none"/>
      <path d="M40.0 18.35 L37.75 10.0 Q44.15 10.55 44.0 11.3 43.9 12.05 40.0 18.35" fill="#000000" fill-rule="evenodd" stroke="none"/>
      <path d="M39.75 10.75 L39.65 17.6 39.25 19.0 37.9 19.0 34.65 16.75 Q37.4 15.5 38.15 14.35 38.9 13.25 39.75 10.75" fill="#000000" fill-rule="evenodd" stroke="none"/>
      <path d="M36.9 17.75 L40.0 18.35 38.0 27.05 36.85 28.4 Q34.2 31.4 29.85 32.9 L30.2 30.4 Q32.45 28.65 34.15 25.0 35.8 21.3 36.9 17.75" fill="#000000" fill-rule="evenodd" stroke="none"/>
      <path d="M36.4 28.6 Q36.0 33.75 34.5 34.75 33.45 35.45 29.6 35.95 L25.0 36.25 Q24.3 36.1 24.05 35.15 L23.9 34.25 30.15 33.0 Q32.75 32.1 36.4 28.6" fill="#000000" fill-rule="evenodd" stroke="none"/>
      <path d="M35.0 32.5 L37.2 25.8 Q40.45 31.15 39.5 32.25 38.6 33.3 35.0 32.5" fill="#000000" fill-rule="evenodd" stroke="none"/>
      <path d="M24.3 33.8 L24.3 31.25 Q28.75 31.15 32.65 29.35 L32.9 32.85 24.3 33.8" fill="#000000" fill-rule="evenodd" stroke="none"/>
      <path d="M34.1 30.85 L32.1 32.2 Q29.95 33.5 28.95 33.5 L23.45 34.8 23.45 31.7 34.1 30.85" fill="#000000" fill-rule="evenodd" stroke="none"/>
      <path d="M37.2 17.5 Q35.3 20.1 31.95 22.35 28.55 24.6 23.65 26.55" fill="none" stroke="#ba2727" stroke-linecap="round" stroke-linejoin="round" stroke-width="1.0"/>
      <path d="M29.1 30.25 L23.15 27.25 23.6 26.4 23.75 26.55 28.95 29.25 32.35 22.5 33.45 21.9 29.1 30.25" fill="#9e0000" fill-rule="evenodd" stroke="none"/>
      <path d="M22.85 4.35 Q24.6 0.0 27.6 0.0 29.65 0.0 31.45 1.7 33.25 3.35 33.7 5.75 34.25 8.3 32.25 10.3 30.05 12.45 26.0 12.45 24.4 12.45 23.3 9.0 22.3 5.8 22.85 4.35" fill="#6395c0" fill-rule="evenodd" stroke="none"/>
    </g>
  </defs>
</svg>
